img/icn_food.svg

<svg width="26" height="20" viewBox="0 0 26 20" fill="none" xmlns="http://www.w3.org/2000/svg">
<path d="M12.4179 0.535645L7.04389 18.5083H3.46341L0.77612 0.535645H12.4179Z" stroke="#979797"/>
<rect x="3.5" y="17.5" width="19" height="1" fill="#9E9E9E" stroke="#979797"/>
<path d="M7.5 8C7.5 5.51472 9.51472 3.5 12 3.5H20C22.4853 3.5 24.5 5.51472 24.5 8V17C24.5 17.8284 23.8284 18.5 23 18.5H9C8.17157 18.5 7.5 17.8284 7.5 17V8Z" fill="white" stroke="#979797"/>
<rect x="7" y="9" width="18" height="2" fill="#979797"/>
<path fill-rule="evenodd" clip-rule="evenodd" d="M7.19336 14.8245H24.2753L25.8599 10.9287L22.6052 11.0061L16.2468 14.0034L9.95215 11.082L6.19019 11.0503L6.22632 12.7515L7.19336 14.8245Z" fill="#979797"/>
</svg>

<svg width="26" height="20" fill="none" xmlns="http://www.w3.org/2000/svg"><path d="M12.418.536 7.044 18.508h-3.58L.775.536h11.642Z" stroke="#979797"/><path fill="#9E9E9E" stroke="#979797" d="M3.5 17.5h19v1h-19z"/><path d="M7.5 8A4.5 4.5 0 0 1 12 3.5h8A4.5 4.5 0 0 1 24.5 8v9a1.5 1.5 0 0 1-1.5 1.5H9A1.5 1.5 0 0 1 7.5 17V8Z" fill="#fff" stroke="#979797"/><path fill="#979797" d="M7 9h18v2H7z"/><path fill-rule="evenodd" clip-rule="evenodd" d="M7.193 14.825h17.082l1.585-3.896-3.255.077-6.358 2.997-6.295-2.921-3.762-.032.036 1.701.967 2.074Z" fill="#979797"/></svg>
